!!!COM:	Bach, Johann Sebastian
!!!CDT:	1685/02/21/-1750/07/28/
!!!OTL@@DE:	La&szlig;, o Herr, dein Ohr sich neigen
!!!SCT:	BWV 372
!!!PC#:	218
!!!AGN:	chorale
**kern	**kern	**kern	**kern
*ICvox	*ICvox	*ICvox	*ICvox
*Ibass	*Itenor	*Ialto	*Isoprn
*I"Bass	*I"Tenor	*I"Alto	*I"Soprano
*>[A,A,B]	*>[A,A,B]	*>[A,A,B]	*>[A,A,B]
*>norep[A,B]	*>norep[A,B]	*>norep[A,B]	*>norep[A,B]
*>A	*>A	*>A	*>A
*clefF4	*clefGv2	*clefG2	*clefG2
*k[b-]	*k[b-]	*k[b-]	*k[b-]
*g:dor	*g:dor	*g:dor	*g:dor
*M4/4	*M4/4	*M4/4	*M4/4
*met(c)	*met(c)	*met(c)	*met(c)
*MM100	*MM100	*MM100	*MM100
=1-	=1-	=1-	=1-
8GGL	4B-	4d	4g
8AA	.	.	.
8BB-	4B-	4d	4g
8CJ	.	.	.
8DL	4A	4d	4f#
8C	.	.	.
8BB-	4B-	4d	4g
8GGJ	.	.	.
=2	=2	=2	=2
4FF#	4c	8e-L	4a
.	.	8dJ	.
4GG	8B-L	8dL	4b-
.	8dJ	8gJ	.
4C	4e-	4g	2a
4D	8dL	4f#	.
.	8cJ	.	.
=3	=3	=3	=3
2GG;	2B-;	2d;	2g;
=:|!	=:|!	=:|!	=:|!
*>B	*>B	*>B	*>B
4G	4d	4g	4b-
4D	8.dL	8gL	4a
.	.	8f#J	.
.	16cJk	.	.
=4	=4	=4	=4
4E-	8B-L	4g	4g
.	8cJ	.	.
4BB-	4d	8gL	4b-
.	.	8fnXJ	.
4C	4c	8e-L	4a
.	.	8dJ	.
4C#	8B-L	4e	4g
.	8AJ	.	.
=5	=5	=5	=5
2D;	2A;	2d;	2f#;
8DL	4F	8AL	4f
8CnX	.	8B-J	.
8BB-	4F	4c	4e-
8AAJ	.	.	.
=6	=6	=6	=6
8BB-L	4F	8B-L	4d
8AA	.	8cJ	.
8GG	4B-	4d	4g
8BB-J	.	.	.
8CL	[4A	4e-	4g
8AAJ	.	.	.
4D	16ALL]	4d	4f#
.	16B-J	.	.
.	8cJ	.	.
=7	=7	=7	=7
2GG;	2B-;	2d;	2g;
4G	4d	4g	4b-
8FL	4f	4a	4cc
8E-J	.	.	.
=8	=8	=8	=8
8DL	4f	4b-	4dd
8CJ	.	.	.
[4BB-	4f	8b-L	4dd
.	.	8a-J	.
8BB-L]	8e-L	8gL	4cc
8AAJ	8cJ	8fJ	.
8BB-L	8dL	4f	4b-
8DJ	[8B-J	.	.
=9	=9	=9	=9
8E-L	8B-L]	4g	2cc
8CJ	16AnXL	.	.
.	16GJJ	.	.
4F	4A	8fL	.
.	.	8e-J	.
2BB-;	2B-;	2d;	2b-;
=10	=10	=10	=10
4.BB-	4d	4f	4b-
.	4c	4f	4cc
8AA	.	.	.
8BB-L	8cL	4f	4dd
8FJ	16B-L	.	.
.	16AJJ	.	.
4B-	4B-	4f	4dd
=11	=11	=11	=11
4F	4A	8fL	4cc
.	.	8e-J	.
8GL	2B-	4d	4b-
8FJ	.	.	.
4E-	.	4g	2cc
4F	4A	8fL	.
.	.	8e-J	.
=12	=12	=12	=12
2BB-;	2F;	2d;	2b-;
4GG	4G	4d	4b-
4D	4F#	8dL	4a
.	.	8cJ	.
=13	=13	=13	=13
4.E-	4G	4B-	4g
.	4G	8e-L	4b-
8E	.	8dJ	.
8FL	4A	8cL	4a
8F#J	.	8dJ	.
8GL	4B-	4d	4g
8GGJ	.	.	.
=14	=14	=14	=14
2D;	2A;	2d;	2f#;
4BB	4G	4d	4f
[4C	4G	8dL	4e-
.	.	16cL	.
.	.	16B-XJJ	.
=15	=15	=15	=15
8CL]	4F#	4A	4d
16BB-L	.	.	.
16AAJJ	.	.	.
8BB-L	8GL	4d	4g
8GGJ	8B-J	.	.
8CL	4.A	4e-	4g
8AAJ	.	.	.
4D	.	4d	4f#
.	8c	.	.
=16	=16	=16	=16
2GG;	2B;	2d;	2g;
==	==	==	==
*-	*-	*-	*-
!!!hum2abc: -Q ''
!!!title: @{PC#}. @{OTL@@DE}
!!!YOR1: 371 vierstimmige Choralges&auml;nge von Johann Sebastian Bach, 
!!!YOR2: 4th ed. by Alfred D&ouml;rffel (Leipzig: Breitkopf und H&auml;rtel, 
!!!YOR2: c.1875). 178 pp. Plate "V.A.10".  reprint: J.S. Bach, 371 Four-Part 
!!!YOR4: Chorales (New York: Associated Music Publishers, Inc., c.1940).
!!!SMS: B&H, 4th ed, Alfred D&ouml;rffel, c.1875, plate V.A.10
!!!EED:  Craig Stuart Sapp
!!!EEV:  2009/05/22
